X: 1
T: Peter Flanagan's
M: 4/4
L: 1/8
R: reel
K: Ador
|:AG|EAAG A2 Bd|eged egga|gedB G2Bd|edBA GEDG|
EAAG A2 Bd|eged eggf|gedB G2Bd|e2dB EA:|
|:A2|a2ea ageg|agbg agef|g2dg egdg|g2af ged2|
a2ea ageg|agbg ageg|gedB G2Bd|e2dB EA:|
